X:93
T:The Bunch of Fives
C:Colin Hume, 1980
M:6/8
L:1/8
S:Colin Hume's website,  colinhume.com  - chords can also be printed below the stave.
Q:3/8=110
K:G
D^CD | "G"[Bd]2D"D"[Ac]2D | "Em"[GB]2A GAB | "Am"[Ac]2E "Em"[GB]2E | "D"A2F D^CD | "C"E2G cBc | "G"d2B "Em"G2B | "A7"A2EF2G | "D"A2F D^CD ||
"G"[Bd]2D"D"[Ac]2D | "Em"[GB]2A GAB | "Am"[Ac]2E "Em"[GB]2E | "D"A2F D^CD | "C"E2G cBc | "G"d2B"Em"G2B | "Am"A2E "D7"FGA | "G"G3GA^A ||
"B7"BcB AGF | "Em"EGB eE^D | "D"DFA d^c=c | "G"B3-BBc | "F#7"^c=c^c edc | "Bm"d^cd f2=f | "E7"e2f ^gfe | "A7"g3AB^c ||
"D"d2D "A"[A^c]2D | "G"[GB]2D "D"[FA]2D | "Em"GAB AGF | "A"E3- "A7"EFG | "D"AFD "Em"BGE | "F#m"^cAF "G"dBG | "A"e^de "A7"AB^c | "D"d3 |]

